src/rounded/icons/fi-rr-transform.svg

<svg id="Layer_1" height="512" viewBox="0 0 24 24" width="512" xmlns="http://www.w3.org/2000/svg" data-name="Layer 1"><path d="m19 24h-1a1 1 0 0 1 0-2h1a3 3 0 0 0 3-3v-1a1 1 0 0 1 2 0v1a5.006 5.006 0 0 1 -5 5zm5-18v-1a5.006 5.006 0 0 0 -5-5h-1a1 1 0 0 0 0 2h1a3 3 0 0 1 3 3v1a1 1 0 0 0 2 0zm-17 17a1 1 0 0 0 -1-1h-1a3 3 0 0 1 -3-3v-1a1 1 0 0 0 -2 0v1a5.006 5.006 0 0 0 5 5h1a1 1 0 0 0 1-1zm-5-17v-1a3 3 0 0 1 3-3h1a1 1 0 0 0 0-2h-1a5.006 5.006 0 0 0 -5 5v1a1 1 0 0 0 2 0zm14 6a4 4 0 1 0 -4 4 4 4 0 0 0 4-4zm-2 0a2 2 0 1 1 -2-2 2 2 0 0 1 2 2z"/></svg>

<svg id="Layer_1" data-name="Layer 1" xmlns="http://www.w3.org/2000/svg" viewBox="0 0 24 24"><path d="M19,24H18a1,1,0,0,1,0-2h1a3,3,0,0,0,3-3V18a1,1,0,0,1,2,0v1A5.006,5.006,0,0,1,19,24ZM24,6V5a5.006,5.006,0,0,0-5-5H18a1,1,0,0,0,0,2h1a3,3,0,0,1,3,3V6a1,1,0,0,0,2,0ZM7,23a1,1,0,0,0-1-1H5a3,3,0,0,1-3-3V18a1,1,0,0,0-2,0v1a5.006,5.006,0,0,0,5,5H6A1,1,0,0,0,7,23ZM2,6V5A3,3,0,0,1,5,2H6A1,1,0,0,0,6,0H5A5.006,5.006,0,0,0,0,5V6A1,1,0,0,0,2,6Zm14,6a4,4,0,1,0-4,4A4,4,0,0,0,16,12Zm-2,0a2,2,0,1,1-2-2A2,2,0,0,1,14,12Z"/></svg>
